X: 6
T: Martin Wynne's
R: reel
M: 4/4
L: 1/8
K: Gmaj
|dged B2Ac | BGAG EAAc | BGBd cdeg | fgaf g2fe |
dged B2Ac | BGAG EAAc | BGBd cdeg |1 fgaf g2ge|2 fgaf gdef ||
|g3a gfef | dged BGBc | dgga gfef| dega b2af |
g3a gfef | dged B3c | dgga gfed |1 fgaf gdef|2 fgaf g2ge||


Tune 461	Setting 13341

